X:1
T:Pax, CMD
T:Pax, CMD
T:John Kinross, 1887
T:Public Domain Courtesy of the Cyber Hymnal™
C:John Kinross, 1887
Z:Public Domain
Z:Courtesy of the Cyber Hymnal™
%%score ( 1 2 ) ( 3 4 )
L:1/8
Q:1/4=113
M:4/4
K:D
V:1 treble 
V:2 treble 
V:3 bass 
V:4 bass 
V:1
 [FB]2 | [Gd]3 [Gc] [GB]2 [G^A]2 | [FB]3 [DF] [DF]2 [D^G]2 | [DA]2 [DF]2 [CA]3 [CG] | [DF]6 [FB]2 | %5
 [Gd]3 [Gc] [GB]2 [G^A]2 | [FB]3 [EF] [DF]2 [D^G]2 | [DA]2 [DF]2 [CA]3 [CG] | [DF]6 [DF]2 | %9
 [FA]3 [F=c] [FB]2 [FA]2 | [FA]3 G G2 [GB]2 | [G=c]3 [Ge] [Fd]2 [Ac]2 | [GB]6 [AB]2 | %13
 [Ge]3 [Gd] [Gc]2 [GB]2 | [F^A]2 [Fc]2 [FB]2 ([F=A][EG]) | [DF]2 B2 [GB]2 [F^A]2 | [FB]6 |] %17
V:2
 x2 | x8 | x8 | x8 | x8 | x8 | x8 | x8 | x8 | x8 | x3 G G2 x2 | x8 | x8 | x8 | x8 | x2 (EF) x4 | %16
 x6 |] %17
V:3
 [B,D]2 | [B,E]3 [B,E] [B,E]2 [B,E]2 | [B,D]3 B, B,2 [^E,B,]2 | [F,A,]2 [D,A,]2 [A,,A,]3 [E,A,] | %4
 [D,A,]6 [D,B,]2 | [E,B,]3 [E,C] [E,D]2 [E,C]2 | [D,B,]3 [C,^A,] [B,,A,]2 [B,,^E,]2 | %7
 [A,,F,]2 [A,,A,]2 [A,,E,]3 [A,,A,] | [D,A,]6 (A,B,) | [D,=C]3 [D,A,] [D,D]2 [D,C]2 | %10
 [G,=C]3 [G,B,] [G,B,]2 D2 | [E,=C]3 [=C,C] [D,A,]2 [F,D]2 | [G,D]6 [F,^D]2 | %13
 [E,E]3 [E,F] [E,E]2 [E,D]2 | [E,C]2 [E,^A,]2 [D,B,]2 [E,B,]2 | [F,B,]2 (CD) [F,E]2 [F,E]2 | %16
 [B,,D]6 |] %17
V:4
 x2 | x8 | x3 B, B,2 x2 | x8 | x8 | x8 | x8 | x8 | x6 D,2 | x8 | x6 (G,=F,) | x8 | x8 | x8 | x8 | %15
 x2 F,2 x4 | x6 |] %17

